X:1
T:There Is Room
T:There Is Room
T:Alfred Beirly
T:Alfred Beirly, 1887
T:Public Domain Courtesy of the Cyber Hymnal™
C:Alfred Beirly
Z:Public Domain
Z:Courtesy of the Cyber Hymnal™
%%score ( 1 2 ) ( 3 4 )
L:1/8
Q:1/4=115
M:9/8
K:Ab
V:1 treble 
V:2 treble 
V:3 bass 
V:4 bass 
V:1
 ([CE][DF])[CE] | [CA]3 [CE]3 (cB)[EA] | [DF]6 ([FA][EG])[DF] | [CE]3 [EA]3 (B2 c) | %4
w: 1.~Wea- * ry|spir- it, seek- * ing|rest, In * the|Sav- ior re- *|
w: 2.~Art * thou|wan- d’ring from * the|fold? Take * this|prom- ise di- *|
w: 3.~La- * den|soul, with sin * op-|pressed, Je- * sus|beck- ons thee *|
w: 4.~Wea- * ry|spir- it, bur- * dened|one, Seek * the|Com- fort- er *|
 [EB]6 (Bc)[Ed] | [Ec]3 [CA]3 (BA)[DF] | [CE]6 (cB)[EA] | [DB]3 [DA]3 [DG]3 | [CA]6 z3 |: %9
w: pose; Lay * thy|bur- den at * His|feet, He * will|light- en thy|woes.|
w: vine: If * re-|pent- ant thou * wilt|come, Je- * sus’|par- don is|thine.|
w: home; Wilt * thou|rest in His * em-|brace? Leave * thy|sor- row and|come.|
w: nigh; Rest * con-|fid- ing in * His|love; Je- * sus|hears ev- ery|sigh.|
"^Refrain" e6 (z E) (ed)[Ec] | [Ec]3 [EB]2 z (dc)[DB] | [CA]3 [EG]3 [DF]3 | %12
w: |||
w: Come, * come * be-|liev- ing, whol- * ly|trust- ing, be|
w: |||
w: |||
 [CE]6 [CE]2 [=B,=D] [CE]3 [CA]3 [Ec]3 | [DB]3 [FA]3 [DF]3 |1 [CE]3 [EA]3 [EB]3 | [Ec]6 z3 :|2 %16
w: ||||
w: free; There is room in the|pre- sence of|Je- sus for|thee,|
w: ||||
w: ||||
 [CE]3 [Ec]3 [DB]3 || [CA]6 |] %18
w: ||
w: Je- sus for|thee.|
w: ||
w: ||
V:2
 x3 | x6 E2 x | x9 | x6 E3 | x6 E2 x | x6 D2 x | x6 E2 x | x9 | x9 |: (A2 A2 E2) x5 | x6 E2 x | %11
 x9 | x18 | x9 |1 x9 | x9 :|2 x9 || x6 |] %18
V:3
 [A,,A,]2 [A,,A,] | [A,,E,]3 [A,,A,]3 ([A,,A,][B,,G,])[C,A,] | [D,A,]6 [D,A,]2 [D,A,] | %3
w: ~ ~|~ ~ ~ * ~|~ ~ ~|
 [A,,A,]3 [C,A,]3 (G,2 A,) | [E,G,]6 (G,A,)[E,B,] | A,3 [A,,E,]3 [D,F,]2 [D,A,] | %6
w: ~ ~ ~ *|~ ~ * ~|~ ~ ~ ~|
 [A,,A,]6 ([A,,A,][B,,G,])[C,A,] | [D,F,]3 [D,F,]3 [E,B,]3 | [A,,A,]6 z3 |: %9
w: ~ ~ * ~|~ ~ ~|~|
 [A,C]2 z [A,C]2 [A,C] ([A,C][G,B,])A, x2 | [E,A,]3 [E,G,]2 z (B,A,)[E,G,] | %11
w: Come, come, O come, * be-|liev- ing, * * *|
 [A,,A,]3 [C,A,]3 [D,A,]3 | [A,,A,]6 [A,,A,]2 [A,,A,] [A,,A,]3 [A,,E,]3 [A,,A,]3 | %13
w: ||
 [D,F,]3 [D,A,]3 [D,A,]3 |1 [A,,A,]3 [C,A,]3 [E,G,]3 | A,6 z3 :|2 [E,A,]3 [E,A,]3 [E,G,]3 || %17
w: ||||
 [A,,A,]6 |] %18
w: |
V:4
 x3 | x9 | x9 | x6 E,3 | x6 E,2 x | A,3 x6 | x9 | x9 | x9 |: x8 A, x2 | x6 E,2 x | x9 | x18 | x9 |1 %14
 x9 | A,6 x3 :|2 x9 || x6 |] %18

